src/shared/assets/icons/person.svg

<svg width="200" height="300" viewBox="0 0 200 300" fill="none" xmlns="http://www.w3.org/2000/svg">
<g clip-path="url(#clip0_29_2)">
<path d="M194.94 0H5.06C2.26544 0 0 2.26544 0 5.06V294.94C0 297.735 2.26544 300 5.06 300H194.94C197.735 300 200 297.735 200 294.94V5.06C200 2.26544 197.735 0 194.94 0Z" fill="#020C17"/>
<path d="M99.6592 153.477C99.7564 153.477 99.8536 153.477 99.9708 153.477C100.01 153.477 100.048 153.477 100.088 153.477C100.146 153.477 100.224 153.477 100.282 153.477C105.989 153.38 110.605 151.374 114.013 147.537C121.512 139.084 120.265 124.594 120.129 123.211C119.642 112.83 114.734 107.864 110.683 105.546C107.664 103.813 104.138 102.878 100.204 102.8H100.068C100.048 102.8 100.01 102.8 99.99 102.8H99.8732C97.7116 102.8 93.4656 103.15 89.3952 105.468C85.3048 107.786 80.3192 112.752 79.832 123.211C79.696 124.594 78.4492 139.084 85.9476 147.537C89.3364 151.374 93.9524 153.38 99.6592 153.477ZM85.0324 123.698C85.0324 123.639 85.0516 123.581 85.0516 123.542C85.6944 109.577 95.608 108.078 99.8536 108.078H99.9316C99.9708 108.078 100.029 108.078 100.088 108.078C105.346 108.195 114.286 110.337 114.89 123.542C114.89 123.601 114.89 123.659 114.909 123.698C114.928 123.834 116.292 137.078 110.098 144.051C107.644 146.816 104.372 148.18 100.068 148.219C100.029 148.219 100.01 148.219 99.9708 148.219C99.9316 148.219 99.9124 148.219 99.8732 148.219C95.5884 148.18 92.2968 146.816 89.8624 144.051C83.6884 137.117 85.0128 123.815 85.0324 123.698Z" fill="#27323F"/>
<path d="M139.994 177.511C139.994 177.491 139.994 177.472 139.994 177.453C139.994 177.297 139.975 177.141 139.975 176.966C139.858 173.109 139.605 164.092 131.152 161.209C131.094 161.19 131.016 161.17 130.958 161.151C122.174 158.911 114.87 153.847 114.792 153.789C113.604 152.951 111.968 153.243 111.131 154.431C110.293 155.619 110.585 157.255 111.773 158.093C112.104 158.327 119.856 163.722 129.555 166.215C134.093 167.831 134.6 172.681 134.736 177.121C134.736 177.297 134.736 177.453 134.756 177.608C134.775 179.361 134.658 182.069 134.346 183.627C131.191 185.418 118.824 191.612 100.01 191.612C81.2736 191.612 68.828 185.399 65.6536 183.607C65.342 182.049 65.2056 179.342 65.2444 177.589C65.2444 177.433 65.264 177.277 65.264 177.102C65.4004 172.661 65.9068 167.812 70.4448 166.195C80.144 163.702 87.8952 158.288 88.2264 158.073C89.4144 157.236 89.7068 155.6 88.8692 154.412C88.0316 153.224 86.3956 152.932 85.2076 153.769C85.1296 153.828 77.8652 158.891 69.0424 161.131C68.9644 161.151 68.906 161.17 68.8476 161.19C60.3948 164.092 60.1416 173.109 60.0248 176.946C60.0248 177.121 60.0248 177.277 60.0052 177.433C60.0052 177.453 60.0052 177.472 60.0052 177.491C59.986 178.504 59.9664 183.705 60.9984 186.314C61.1932 186.821 61.544 187.249 62.0112 187.541C62.5956 187.931 76.5992 196.851 100.029 196.851C123.459 196.851 137.463 187.911 138.047 187.541C138.495 187.249 138.865 186.821 139.06 186.314C140.034 183.724 140.014 178.524 139.994 177.511Z" fill="#27323F"/>
</g>
<defs>
<clipPath id="clip0_29_2">
<rect width="200" height="300" fill="white"/>
</clipPath>
</defs>
</svg>

<svg width="200" height="300" viewBox="0 0 200 300" fill="none" xmlns="http://www.w3.org/2000/svg"><g clip-path="url(#a)"><path d="M194.94 0H5.06A5.06 5.06 0 0 0 0 5.06v289.88A5.06 5.06 0 0 0 5.06 300h189.88a5.06 5.06 0 0 0 5.06-5.06V5.06A5.06 5.06 0 0 0 194.94 0" fill="#020C17"/><path d="M99.66 153.477h.622c5.707-.097 10.323-2.103 13.731-5.94 7.499-8.453 6.252-22.943 6.116-24.326-.487-10.381-5.395-15.347-9.446-17.665-3.019-1.733-6.545-2.668-10.479-2.746h-.331c-2.161 0-6.407.35-10.478 2.668-4.09 2.318-9.076 7.284-9.563 17.743-.136 1.383-1.383 15.873 6.116 24.326 3.388 3.837 8.004 5.843 13.711 5.94m-14.628-29.779c0-.059.02-.117.02-.156.642-13.965 10.556-15.464 14.802-15.464h.234c5.258.117 14.198 2.259 14.802 15.464 0 .059 0 .117.019.156.019.136 1.383 13.38-4.811 20.353-2.454 2.765-5.726 4.129-10.03 4.168h-.195c-4.285-.039-7.576-1.403-10.01-4.168-6.175-6.934-4.85-20.236-4.83-20.353" fill="#27323F"/><path d="M139.994 177.511v-.058c0-.156-.019-.312-.019-.487-.117-3.857-.37-12.874-8.823-15.757-.058-.019-.136-.039-.194-.058-8.784-2.24-16.088-7.304-16.166-7.362a2.625 2.625 0 0 0-3.661.642 2.626 2.626 0 0 0 .642 3.662c.331.234 8.083 5.629 17.782 8.122 4.538 1.616 5.045 6.466 5.181 10.906 0 .176 0 .332.02.487.019 1.753-.098 4.461-.41 6.019-3.155 1.791-15.522 7.985-34.336 7.985-18.736 0-31.182-6.213-34.356-8.005-.312-1.558-.448-4.265-.41-6.018 0-.156.02-.312.02-.487.136-4.441.643-9.29 5.18-10.907 9.7-2.493 17.451-7.907 17.782-8.122a2.626 2.626 0 0 0 .643-3.661 2.627 2.627 0 0 0-3.661-.643c-.078.059-7.343 5.122-16.166 7.362a2 2 0 0 0-.194.059c-8.453 2.902-8.706 11.919-8.823 15.756 0 .175 0 .331-.02.487v.058c-.019 1.013-.039 6.214.993 8.823a2.5 2.5 0 0 0 1.013 1.227c.585.39 14.588 9.31 38.018 9.31s37.434-8.94 38.018-9.31c.448-.292.818-.72 1.013-1.227.974-2.59.954-7.79.934-8.803" fill="#27323F"/></g><defs><clipPath id="a"><path fill="#fff" d="M0 0h200v300H0z"/></clipPath></defs></svg>
